src/assets/a-to-bo-direction-icon.svg

<svg width="20" height="40" viewBox="0 0 20 61" fill="none" xmlns="http://www.w3.org/2000/svg"><circle cx="10" cy="10" r="10" fill="#024EC9"/><circle cx="10" cy="51" r="10" fill="#024EC9"/><path stroke="#024EC9" stroke-width="2" d="M10 22v16"/><path d="M9.396 5.408h1.86L14.484 14h-1.788l-.72-2.052H8.688L7.968 14H6.18l3.216-8.592zm2.052 5.052l-.756-2.16-.312-1.032h-.096L9.972 8.3l-.768 2.16h2.244zM6.984 46.408h3.36c.48 0 .92.1 1.32.3.408.2.728.472.96.816.232.344.348.72.348 1.128 0 .432-.108.808-.324 1.128a2.065 2.065 0 01-.828.72v.096c.448.16.804.416 1.068.768.264.344.396.76.396 1.248 0 .472-.128.892-.384 1.26-.248.36-.588.64-1.02.84a3.394 3.394 0 01-1.416.288h-3.48v-8.592zm3.24 3.504c.352 0 .632-.096.84-.288a.973.973 0 00.324-.744.94.94 0 00-.312-.72c-.2-.2-.468-.3-.804-.3H8.604v2.052h1.62zm.18 3.612c.392 0 .696-.1.912-.3.224-.208.336-.476.336-.804 0-.328-.112-.596-.336-.804-.224-.208-.544-.312-.96-.312H8.604v2.22h1.8z" fill="#fff"/></svg>

<svg width="20" height="40" viewBox="0 0 20 61" fill="none" xmlns="http://www.w3.org/2000/svg">
<circle cx="10" cy="10" r="10" fill="#024EC9"/>
<circle cx="10" cy="51" r="10" fill="#024EC9"/>
<line x1="10" y1="22" x2="10" y2="38" stroke="#024EC9" stroke-width="2"/>
<path d="M9.396 5.408H11.256L14.484 14H12.696L11.976 11.948H8.688L7.968 14H6.18L9.396 5.408ZM11.448 10.46L10.692 8.3L10.38 7.268H10.284L9.972 8.3L9.204 10.46H11.448Z" fill="white"/>
<path d="M6.984 46.408H10.344C10.824 46.408 11.264 46.508 11.664 46.708C12.072 46.908 12.392 47.18 12.624 47.524C12.856 47.868 12.972 48.244 12.972 48.652C12.972 49.084 12.864 49.46 12.648 49.78C12.44 50.092 12.164 50.332 11.82 50.5V50.596C12.268 50.756 12.624 51.012 12.888 51.364C13.152 51.708 13.284 52.124 13.284 52.612C13.284 53.084 13.156 53.504 12.9 53.872C12.652 54.232 12.312 54.512 11.88 54.712C11.456 54.904 10.984 55 10.464 55H6.984V46.408ZM10.224 49.912C10.576 49.912 10.856 49.816 11.064 49.624C11.28 49.424 11.388 49.176 11.388 48.88C11.388 48.592 11.284 48.352 11.076 48.16C10.876 47.96 10.608 47.86 10.272 47.86H8.604V49.912H10.224ZM10.404 53.524C10.796 53.524 11.1 53.424 11.316 53.224C11.54 53.016 11.652 52.748 11.652 52.42C11.652 52.092 11.54 51.824 11.316 51.616C11.092 51.408 10.772 51.304 10.356 51.304H8.604V53.524H10.404Z" fill="white"/>
</svg>
